material/.icons/material/image-search.svg

<svg xmlns="http://www.w3.org/2000/svg" viewBox="0 0 24 24"><path d="M15.5 2C18 2 20 4 20 6.5c0 .88-.25 1.71-.69 2.4l3.08 3.1L21 13.39l-3.12-3.07c-.69.43-1.51.68-2.38.68C13 11 11 9 11 6.5S13 2 15.5 2m0 2A2.5 2.5 0 0013 6.5 2.5 2.5 0 0015.5 9 2.5 2.5 0 0018 6.5 2.5 2.5 0 0015.5 4m-8 10.5L4 19h14l-4.5-6-3.5 4.5-2.5-3M20 20a2 2 0 01-2 2H4a2 2 0 01-2-2V6a2 2 0 012-2h5.5c-.32.77-.5 1.61-.5 2.5a6.5 6.5 0 006.5 6.5c.68 0 1.34-.11 1.96-.3L20 15.24V20z"/></svg>

<?xml version="1.0" encoding="UTF-8"?><!DOCTYPE svg PUBLIC "-//W3C//DTD SVG 1.1//EN" "http://www.w3.org/Graphics/SVG/1.1/DTD/svg11.dtd"><svg xmlns="http://www.w3.org/2000/svg" xmlns:xlink="http://www.w3.org/1999/xlink" version="1.1" id="mdi-image-search" width="24" height="24" viewBox="0 0 24 24"><path d="M15.5,2C18,2 20,4 20,6.5C20,7.38 19.75,8.21 19.31,8.9L22.39,12L21,13.39L17.88,10.32C17.19,10.75 16.37,11 15.5,11C13,11 11,9 11,6.5C11,4 13,2 15.5,2M15.5,4A2.5,2.5 0 0,0 13,6.5A2.5,2.5 0 0,0 15.5,9A2.5,2.5 0 0,0 18,6.5A2.5,2.5 0 0,0 15.5,4M7.5,14.5L4,19H18L13.5,13L10,17.5L7.5,14.5M20,20A2,2 0 0,1 18,22H4A2,2 0 0,1 2,20V6A2,2 0 0,1 4,4H9.5C9.18,4.77 9,5.61 9,6.5A6.5,6.5 0 0,0 15.5,13C16.18,13 16.84,12.89 17.46,12.7L20,15.24V20Z" /></svg>
